X: 37701
T: Soft Horse
R: reel
M: 4/4
K: Dmajor
D2AG FGAF|E2ed cABc|dBBA BdAF|GFED CA,B,C|
D2AG FGAF|E2ed cABc|dBBA BdAF|GFEG FDD2:|
|:BF(3FFF Bcdc|BG(3GGG BcdB|cA(3AAA e(3eeec|Aced cAGE|
D2AG FGAF|E2ed cABc|dBBA BdAF|GFEG FDD2:|

